X:1
T:Occhi che per
T:Occhi che per
T:Giovanni Maria Artusi
T:Source : Canzonette a 4 voci---Libro primo---Venetia---G.Vincenti---1598. Editor : André Vierendeels (18/02/14).
T:Notes: Original clefs : G2, G2, C2, C4 Square brackets indicate ligatures
C:Giovanni Maria Artusi
%%score [ 1 2 3 4 ]
L:1/8
Q:1/4=80
M:4/4
K:C
V:1 treble nm="Canto 1" snm="C 1"
V:2 treble nm="Canto 2" snm="C 2"
V:3 treble nm="Alto" snm="A"
V:4 bass nm="Basso" snm="B"
V:1
 d8- | d4 d2 e2 | A2 B2 c4 | c2 B2 B4 | z4 g4 | g8 | e6 c2 | d8 | e8 | z4 B4- | B4 B2 c2 | %11
w: Oc-|* chi che|per un sguar-|do, di voi|mi|strug'|et ar-||do,|oc-|* chi che|
 c2 d2 e4 | e2 d2 d4- | d4 e4 | e2 e2 d4- | d4 c4- | c4 B4 | c4 z2 G2 | A3 B c2 B2 | A4 B2 B2 | %20
w: per un sguar-|do, di voi|_ mi|strug' et ar-|||do, se|non mi dat' a-|i- ta, io|
 B3 c A2 c2 | B4 c2 c2 | c6 c2 | B2 e2 d4 | e4 e4 | c3 B A2 d2 | d4 d2 d2 | d3 e c2 e2 | d4 e2 e2 | %29
w: per- de- ro la|vi- ta, io|per- de-|ro la vi-|ta, se|non mi dat' a-|i- ta, io|per- de- ro la|vi- ta, io|
 e3 e c2 e2 | d2 c4 B2 | c8 |] %32
w: per- de- ro la|vi- * *|ta.|
V:2
 z4 B4- | B4 B2 c2 | c2 d2 e4 | e2 d2 d4- | d4 e4 | e2 e2 d4- | d4 c4- | c4 B4 | c8 | z4 d4- | %10
w: Oc-|* chi che|per un sguar-|do, di voi|_ mi|strug' et ar-|||do,|oc-|
 d4 d2 e2 | A2 B2 c4 | c2 B2 B4 | z4 g4 | g8 | e6 c2 | d8 | e4 e4 | c3 B A2 d2 | d4 d2 d2 | %20
w: * chi che|per un sguar-|do, di voi|mi|stru-|go et|ar-|do, se|non mi dat' a-|i- ta, io|
 d3 e c2 e2 | d4 e2 e2 | e3 e c2 e2 | d2 c4 B2 | c4 z2 G2 | A3 B c2 B2 | A4 B2 B2 | B3 c A2 c2 | %28
w: per- de- ro la|vi- ta, io|per- de- ro la|vi- * *|ta, se|non mi dat'- _|i- ta, io|per- de- ro la|
 B4 c2 c2 | c6 c2 | B2 e2 d4 | e8 |] %32
w: vi- ta, io|per- de-|ro la vi-|ta.|
V:3
 G8 | G4 z2 E2 | F2 D2 C4 | C2 G2 G4 | B4 c4- | c2 c2 B4 | A4 E4 | G2 G2 G4 | G8 | G8 | G4 z2 E2 | %11
w: Oc-|chi che|per un sguar-|do, di voi|mi strug'|_ et ar-|do, mi|strug' et ar-|do,|oc-|chi che|
 F2 D2 C4 | C2 G2 G4 | B4 c4- | c2 c2 B4 | A4 E4 | G2 G2 G4 | G8 | z4 E2 G2 | ^F4 G2 G2 | %20
w: per un sguar-|do, di voi|mi strug'|_ et ar-|do, mi|strug' at ar-|do,|dat' a-|i- ta, io|
 G3 E F2 C2 | G4 C2 G2 | A3 G A2 G2 | G8 | G8 | z4 E2 G2 | ^F4 G2 G2 | G3 E F2 C2 | G4 C2 G2 | %29
w: per- de- ro la|vi- ta, io|per- de- ro la|vi-|ta,|dat' a-|i- ta, io|per- de- ro la|vi- ta, io|
 A3 G A2 G2 | G8 | G8 |] %32
w: per- de- ro la|vi-|ta.|
V:4
 z8 | z8 | z8 | z8 | G,8- | G,8 | A,4 A,4 | G,8 | C,8 | z8 | z8 | z8 | z8 | G,8- | G,8 | A,4 A,4 | %16
w: ||||Mi|_|strug' et|ar-|do,|||||mi|_|strug' et|
 G,8 | C,4 C4 | A,3 G, A,2 G,2 | D,4 G,4 | z8 | z4 C4 | A,3 E, F,2 C,2 | G,8 | C,4 C4 | %25
w: ar-|do, se|non mi dat' a-|i- ta,||io|per- de- ro la|vi-|ta, se-|
 A,3 G, A,2 G,2 | D,4 G,4 | z8 | z4 C4 | A,3 E, F,2 C,2 | G,8 | C,8 |] %32
w: non mi dat' a-|i- ta,||io|per- de- ro la|vi-|ta.|

